;START_OF_HEADER
;HEADER_VERSION:0.1
;FLAVOR:Griffin
;GENERATOR.NAME:Cura_SteamEngine
;GENERATOR.VERSION:3.5.0
;GENERATOR.BUILD_DATE:2018-10-03
;TARGET_MACHINE.NAME:Ultimaker 3 Extended
;EXTRUDER_TRAIN.0.INITIAL_TEMPERATURE:220
;EXTRUDER_TRAIN.0.MATERIAL.VOLUME_USED:12447
;EXTRUDER_TRAIN.0.MATERIAL.GUID:506c9f0d-e3aa-4bd4-b2d2-23e2425b1aa9
;EXTRUDER_TRAIN.0.NOZZLE.DIAMETER:0.4
;EXTRUDER_TRAIN.0.NOZZLE.NAME:AA 0.4
;BUILD_PLATE.TYPE:glass
;BUILD_PLATE.INITIAL_TEMPERATURE:60
;PRINT.TIME:4698
;PRINT.SIZE.MIN.X:9
;PRINT.SIZE.MIN.Y:6
;PRINT.SIZE.MIN.Z:0.27
;PRINT.SIZE.MAX.X:163.51
;PRINT.SIZE.MAX.Y:154.909
;PRINT.SIZE.MAX.Z:31.67
;END_OF_HEADER
;Generated with Cura_SteamEngine 3.5.0
T0
M82 ;absolute extrusion mode

G92 E0
M109 S220
G0 F15000 X9 Y6 Z2
G280
G1 F1500 E-6.5
;LAYER_COUNT:158
;LAYER:0
M107
M204 S625
M205 X6 Y6
G0 F4333.3 X144.061 Y131.106 Z0.27
M204 S500
M205 X5 Y5
;TYPE:SUPPORT
G1 F1500 E0
G1 F1560 X140.069 Y135.128 E0.10073
G1 X137.228 Y137.504 E0.16657
G1 X137.074 Y137.623 E0.17003
G1 X135.134 Y139.282 E0.2154
G1 X130.46 Y142.591 E0.3172
G1 X124.646 Y146.013 E0.43712
G1 X119.395 Y148.553 E0.54081
G1 X113.641 Y150.736 E0.65021
G1 X107.736 Y152.451 E0.75951
G1 X101.802 Y153.643 E0.8671
G1 X100.739 Y153.806 E0.88622
G1 X95.956 Y154.345 E0.97178
G1 X93.085 Y154.498 E1.02289
G1 X92.227 Y154.522 E1.03815
G1 X93.545 Y151.688 E1.0937
G1 X93.232 Y151.2 E1.10401
G1 X88.593 Y151.202 E1.18647
G1 X88.504 Y151.122 E1.1886
G1 X88.377 Y150.533 E1.19931
G1 X88.387 Y150.211 E1.20504
G1 X88.377 Y150.155 E1.20605
G1 X88.411 Y149.775 E1.21283
G1 X88.394 Y149.69 E1.21437
G1 X88.409 Y149.349 E1.22044
G1 X88.383 Y149.199 E1.22314
G1 X88.413 Y148.838 E1.22958
G1 X88.384 Y148.664 E1.23272
G1 X88.413 Y148.318 E1.23889
G1 X88.384 Y148.146 E1.24199
G1 X88.413 Y147.8 E1.24816
G1 X88.384 Y147.629 E1.25125
G1 X88.413 Y147.283 E1.25742
G1 X88.384 Y147.11 E1.26054
G1 X88.413 Y146.764 E1.26671
G1 X88.384 Y146.591 E1.26983
G1 X88.413 Y146.245 E1.276
G1 X88.384 Y146.072 E1.27912
G1 X88.413 Y145.726 E1.28529
G1 X88.384 Y145.553 E1.28841
G1 X88.413 Y145.207 E1.29458
G1 X88.384 Y145.034 E1.2977
G1 X88.413 Y144.689 E1.30385
G1 X88.384 Y144.512 E1.30704
G1 X88.413 Y144.163 E1.31327
G1 X88.384 Y143.989 E1.3164
G1 X88.413 Y143.641 E1.32261
G1 X88.384 Y143.468 E1.32573
G1 X88.413 Y143.12 E1.33194
G1 X88.384 Y142.947 E1.33505
G1 X88.413 Y142.6 E1.34124
G1 X88.384 Y142.427 E1.34436
G1 X88.413 Y142.08 E1.35055
G1 X88.384 Y141.907 E1.35367
G1 X88.413 Y141.56 E1.35986
G1 X88.384 Y141.387 E1.36298
G1 X88.413 Y141.04 E1.36917
G1 X88.384 Y140.867 E1.37228
G1 X88.413 Y140.52 E1.37847
G1 X88.384 Y140.347 E1.38159
G1 X88.413 Y140 E1.38778
G1 X88.384 Y139.827 E1.3909
G1 X88.413 Y139.481 E1.39707
G1 X88.384 Y139.31 E1.40016
G1 X88.413 Y138.965 E1.40631
G1 X88.384 Y138.79 E1.40946
G1 X88.415 Y138.428 E1.41592
G1 X88.383 Y138.252 E1.4191
G1 X88.413 Y137.895 E1.42547
G1 X88.384 Y137.722 E1.42859
G1 X88.413 Y137.376 E1.43476
G1 X88.384 Y137.204 E1.43786
G1 X88.413 Y136.858 E1.44403
G1 X88.384 Y136.687 E1.44712
G1 X88.413 Y136.341 E1.45329
G1 X88.384 Y136.168 E1.45641
G1 X88.413 Y135.821 E1.4626
G1 X88.384 Y135.648 E1.46571
G1 X88.413 Y135.301 E1.4719
G1 X88.384 Y135.128 E1.47502
G1 X88.413 Y134.781 E1.48121
G1 X88.384 Y134.608 E1.48433
G1 X88.413 Y134.261 E1.49052
G1 X88.384 Y134.088 E1.49364
G1 X88.413 Y133.741 E1.49983
G1 X88.384 Y133.568 E1.50295
G1 X88.413 Y133.221 E1.50914
G1 X88.384 Y133.048 E1.51225
G1 X88.413 Y132.701 E1.51844
G1 X88.384 Y132.528 E1.52156
G1 X88.413 Y132.18 E1.52777
G1 X88.384 Y132.007 E1.53089
G1 X88.413 Y131.659 E1.53709
G1 X88.384 Y131.486 E1.54021
G1 X88.413 Y131.138 E1.54642
G1 X88.384 Y130.965 E1.54954
G1 X88.413 Y130.617 E1.55575
G1 X88.384 Y130.444 E1.55886
G1 X88.413 Y130.096 E1.56507
G1 X88.384 Y129.923 E1.56819
G1 X88.413 Y129.575 E1.5744
G1 X88.384 Y129.402 E1.57752
G1 X88.413 Y129.055 E1.58371
G1 X88.384 Y128.88 E1.58686
G1 X88.412 Y128.535 E1.59301
G1 X88.384 Y128.363 E1.59611
G1 X88.413 Y128.002 E1.60255
G1 X88.384 Y127.834 E1.60558
G1 X88.413 Y127.489 E1.61173
G1 X88.384 Y127.316 E1.61485
G1 X88.413 Y126.968 E1.62106
G1 X88.384 Y126.797 E1.62414
G1 X88.413 Y126.451 E1.63031
G1 X88.384 Y126.276 E1.63347
G1 X88.413 Y125.927 E1.63969
G1 X88.384 Y125.754 E1.64281
G1 X88.413 Y125.406 E1.64902
G1 X88.384 Y125.233 E1.65213
G1 X88.413 Y124.885 E1.65834
G1 X88.384 Y124.712 E1.66146
G1 X88.413 Y124.364 E1.66767
G1 X88.384 Y124.191 E1.67079
G1 X88.413 Y123.844 E1.67698
G1 X88.384 Y123.672 E1.68008
G1 X88.413 Y123.326 E1.68625
G1 X88.384 Y123.153 E1.68937
G1 X88.413 Y122.805 E1.69557
G1 X88.384 Y122.634 E1.69866
G1 X88.413 Y122.288 E1.70483
G1 X88.384 Y122.114 E1.70796
G1 X88.413 Y121.769 E1.71412
G1 X88.385 Y121.603 E1.71711
G1 X88.419 Y121.218 E1.72398
G1 X88.385 Y121.045 E1.72712
G1 X88.414 Y120.724 E1.73285
G1 X88.384 Y120.551 E1.73597
G1 X88.416 Y120.194 E1.74234
G1 X88.385 Y120.014 E1.74558
G1 X88.414 Y119.672 E1.75169
G1 X88.385 Y119.497 E1.75484
G1 X88.414 Y119.15 E1.76103
G1 X88.385 Y118.977 E1.76415
G1 X88.414 Y118.63 E1.77034
G1 X88.385 Y118.457 E1.77346
G1 X88.414 Y118.111 E1.77963
G1 X88.385 Y117.938 E1.78275
G1 X88.414 Y117.591 E1.78894
G1 X88.385 Y117.418 E1.79205
G1 X88.414 Y117.07 E1.79826
G1 X88.385 Y116.897 E1.80138
G1 X88.414 Y116.549 E1.80759
G1 X88.385 Y116.376 E1.8107
G1 X88.414 Y116.028 E1.81691
G1 X88.385 Y115.855 E1.82003
G1 X88.414 Y115.507 E1.82624
G1 X88.385 Y115.336 E1.82932
G1 X88.414 Y114.991 E1.83548
G1 X88.385 Y114.813 E1.83868
G1 X88.412 Y114.462 E1.84494
G1 X88.384 Y114.293 E1.84798
G1 X88.413 Y113.945 E1.85419
G1 X88.384 Y113.771 E1.85733
G1 X88.413 Y113.423 E1.86353
G1 X88.384 Y113.25 E1.86665
G1 X88.413 Y112.902 E1.87286
G1 X88.384 Y112.729 E1.87598
G1 X88.413 Y112.38 E1.8822
G1 X88.384 Y112.207 E1.88532
G1 X88.393 Y112.1 E1.88723
G1 X88.52 Y112.207 E1.89018
G1 X90.504 Y112.207 E1.92545
G1 X90.631 Y112.1 E1.9284
G1 X90.64 Y112.207 E1.93031
G1 X90.611 Y112.38 E1.93343
G1 X90.64 Y112.729 E1.93965
G1 X90.611 Y112.902 E1.94277
G1 X90.64 Y113.25 E1.94898
G1 X90.611 Y113.423 E1.9521
G1 X90.64 Y113.771 E1.95831
G1 X90.611 Y113.944 E1.96142
G1 X90.64 Y114.292 E1.96763
G1 X90.611 Y114.465 E1.97075
G1 X90.64 Y114.813 E1.97696
G1 X90.611 Y114.986 E1.98007
G1 X90.64 Y115.334 E1.98628
G1 X90.611 Y115.507 E1.9894
G1 X90.64 Y115.855 E1.99561
G1 X90.611 Y116.028 E1.99873
G1 X90.64 Y116.376 E2.00493
G1 X90.611 Y116.549 E2.00805
G1 X90.64 Y116.898 E2.01428
G1 X90.612 Y117.067 E2.01732
G1 X90.639 Y117.418 E2.02358
G1 X90.61 Y117.596 E2.02679
G1 X90.639 Y117.941 E2.03294
G1 X90.61 Y118.113 E2.03604
G1 X90.639 Y118.459 E2.04221
G1 X90.61 Y118.632 E2.04533
G1 X90.639 Y118.979 E2.05152
G1 X90.61 Y119.152 E2.05464
G1 X90.639 Y119.499 E2.06083
G1 X90.61 Y119.672 E2.06395
G1 X90.639 Y120.019 E2.07014
G1 X90.61 Y120.192 E2.07325
G1 X90.639 Y120.538 E2.07943
G1 X90.61 Y120.712 E2.08256
G1 X90.639 Y121.056 E2.0887
G1 X90.608 Y121.237 E2.09196
G1 X90.64 Y121.591 E2.09828
G1 X90.61 Y121.763 E2.10139
G1 X90.64 Y122.092 E2.10726
G1 X90.607 Y122.261 E2.11032
G1 X90.639 Y122.635 E2.11699
G1 X90.609 Y122.805 E2.12006
G1 X90.64 Y123.156 E2.12632
G1 X90.611 Y123.326 E2.12939
G1 X90.64 Y123.673 E2.13558
G1 X90.611 Y123.846 E2.1387
G1 X90.64 Y124.193 E2.14489
G1 X90.611 Y124.366 E2.148
G1 X90.64 Y124.713 E2.15419
G1 X90.611 Y124.885 E2.1573
G1 X90.638 Y125.237 E2.16357
G1 X90.608 Y125.413 E2.16674
G1 X90.637 Y125.739 E2.17256
G1 X90.606 Y125.9 E2.17548
G1 X90.639 Y126.284 E2.18233
G1 X90.61 Y126.456 E2.18543
G1 X90.639 Y126.8 E2.19157
G1 X90.609 Y126.973 E2.19469
G1 X90.64 Y127.317 E2.20083
G1 X90.612 Y127.486 E2.20387
G1 X90.641 Y127.832 E2.21004
G1 X90.609 Y128.006 E2.21319
G1 X90.64 Y128.365 E2.21959
G1 X90.611 Y128.537 E2.22269
G1 X90.64 Y128.883 E2.22887
G1 X90.611 Y129.056 E2.23198
G1 X90.64 Y129.403 E2.23817
G1 X90.611 Y129.576 E2.24129
G1 X90.64 Y129.923 E2.24748
G1 X90.611 Y130.096 E2.2506
G1 X90.64 Y130.444 E2.25681
G1 X90.611 Y130.617 E2.25993
G1 X90.64 Y130.965 E2.26613
G1 X90.611 Y131.138 E2.26925
G1 X90.64 Y131.486 E2.27546
G1 X90.611 Y131.659 E2.27858
G1 X90.64 Y132.007 E2.28478
G1 X90.611 Y132.18 E2.2879
G1 X90.64 Y132.528 E2.29411
G1 X90.611 Y132.701 E2.29723
G1 X90.64 Y133.048 E2.30342
G1 X90.611 Y133.221 E2.30654
G1 X90.64 Y133.568 E2.31273
G1 X90.611 Y133.741 E2.31584
G1 X90.64 Y134.088 E2.32203
G1 X90.611 Y134.261 E2.32515
G1 X90.64 Y134.608 E2.33134
G1 X90.611 Y134.781 E2.33446
G1 X90.64 Y135.128 E2.34065
G1 X90.611 Y135.301 E2.34377
G1 X90.64 Y135.648 E2.34996
G1 X90.611 Y135.821 E2.35308
G1 X90.64 Y136.168 E2.35927
G1 X90.611 Y136.341 E2.36238
G1 X90.64 Y136.687 E2.36856
G1 X90.611 Y136.858 E2.37164
G1 X90.64 Y137.204 E2.37781
G1 X90.611 Y137.376 E2.38091
G1 X90.64 Y137.722 E2.38708
G1 X90.611 Y137.895 E2.3902
G1 X90.641 Y138.252 E2.39657
G1 X90.609 Y138.428 E2.39975
G1 X90.64 Y138.79 E2.40621
G1 X90.611 Y138.965 E2.40936
G1 X90.64 Y139.31 E2.41552
G1 X90.611 Y139.481 E2.4186
G1 X90.64 Y139.827 E2.42477
G1 X90.611 Y140 E2.42789
G1 X90.64 Y140.347 E2.43408
G1 X90.611 Y140.52 E2.4372
G1 X90.64 Y140.867 E2.44339
G1 X90.611 Y141.04 E2.4465
G1 X90.64 Y141.387 E2.45269
G1 X90.611 Y141.56 E2.45581
G1 X90.64 Y141.907 E2.462
G1 X90.611 Y142.08 E2.46512
G1 X90.64 Y142.427 E2.47131
G1 X90.611 Y142.6 E2.47443
G1 X90.64 Y142.947 E2.48062
G1 X90.611 Y143.12 E2.48374
G1 X90.64 Y143.469 E2.48996
G1 X90.611 Y143.642 E2.49308
G1 X90.64 Y143.99 E2.49929
G1 X90.611 Y144.164 E2.50242
G1 X90.64 Y144.513 E2.50865
G1 X90.611 Y144.69 E2.51184
G1 X90.64 Y145.036 E2.51801
G1 X90.611 Y145.21 E2.52114
G1 X90.64 Y145.557 E2.52733
G1 X90.611 Y145.73 E2.53045
G1 X90.64 Y146.078 E2.53666
G1 X90.612 Y146.252 E2.53979
G1 X90.64 Y146.588 E2.54579
G1 X90.61 Y146.784 E2.54931
G1 X90.64 Y147.143 E2.55571
G1 X90.37 Y149.143 E2.59159
G1 X90.733 Y149.547 E2.60124
G1 X94.5 Y149.434 E2.66824
G1 X96.579 Y149.292 E2.70528
G1 X101.883 Y148.571 E2.80043
G1 X108.284 Y147.17 E2.91691
G1 X113.989 Y145.326 E3.02348
G1 X119.331 Y143.122 E3.12621
G1 X124.521 Y140.422 E3.2302
G1 X129.476 Y137.257 E3.33472
G1 X134.361 Y133.51 E3.44416
G1 X138.605 Y129.605 E3.54667
G1 X142.522 Y125.345 E3.64955
G1 X146.217 Y120.527 E3.75748
G1 X149.372 Y115.605 E3.8614
G1 X152.145 Y110.249 E3.96861
G1 X154.401 Y104.805 E4.07337
G1 X156.247 Y99.064 E4.18056
G1 X157.497 Y93.382 E4.28398
G1 X158.326 Y87.282 E4.39341
G1 X158.503 Y84.354 E4.44556
G1 X158.57 Y81.675 E4.49319
G1 X158.158 Y81.315 E4.50292
G1 X156.146 Y81.644 E4.53916
G1 X155.765 Y81.615 E4.54595
G1 X155.607 Y81.64 E4.54879
G1 X155.233 Y81.608 E4.55547
G1 X155.057 Y81.64 E4.55865
G1 X154.711 Y81.611 E4.56482
G1 X154.54 Y81.64 E4.5679
G1 X154.194 Y81.611 E4.57407
G1 X154.021 Y81.64 E4.57719
G1 X153.674 Y81.611 E4.58338
G1 X153.501 Y81.64 E4.5865
G1 X153.154 Y81.611 E4.59269
G1 X152.981 Y81.64 E4.59581
G1 X152.635 Y81.611 E4.60198
G1 X152.462 Y81.64 E4.6051
G1 X152.116 Y81.611 E4.61127
G1 X151.943 Y81.64 E4.61439
G1 X151.596 Y81.611 E4.62058
G1 X151.423 Y81.64 E4.6237
G1 X151.076 Y81.611 E4.62989
G1 X150.903 Y81.64 E4.633
G1 X150.556 Y81.611 E4.63919
G1 X150.383 Y81.64 E4.64231
G1 X150.036 Y81.611 E4.6485
G1 X149.863 Y81.64 E4.65162
G1 X149.516 Y81.611 E4.65781
G1 X149.343 Y81.64 E4.66093
G1 X148.995 Y81.611 E4.66714
G1 X148.822 Y81.64 E4.67025
G1 X148.474 Y81.611 E4.67646
G1 X148.301 Y81.64 E4.67958
G1 X147.953 Y81.611 E4.68579
G1 X147.78 Y81.64 E4.6889
G1 X147.432 Y81.611 E4.69511
G1 X147.259 Y81.64 E4.69823
G1 X146.911 Y81.611 E4.70444
G1 X146.738 Y81.64 E4.70756
G1 X146.39 Y81.611 E4.71376
G1 X146.217 Y81.64 E4.71688
G1 X145.869 Y81.611 E4.72309
G1 X145.696 Y81.64 E4.72621
G1 X145.348 Y81.611 E4.73241
G1 X145.175 Y81.64 E4.73553
G1 X144.827 Y81.611 E4.74174
G1 X144.654 Y81.64 E4.74486
G1 X144.306 Y81.611 E4.75107
G1 X144.133 Y81.64 E4.75418
G1 X143.785 Y81.611 E4.76039
G1 X143.612 Y81.64 E4.76351
G1 X143.264 Y81.611 E4.76972
G1 X143.091 Y81.64 E4.77284
G1 X142.743 Y81.611 E4.77904
G1 X142.57 Y81.64 E4.78216
G1 X142.222 Y81.611 E4.78837
G1 X142.049 Y81.64 E4.79149
G1 X141.701 Y81.611 E4.79769
G1 X141.528 Y81.64 E4.80081
G1 X141.18 Y81.611 E4.80702
G1 X141.007 Y81.64 E4.81014
G1 X140.659 Y81.611 E4.81635
G1 X140.486 Y81.64 E4.81946
G1 X140.138 Y81.611 E4.82567
G1 X139.965 Y81.64 E4.82879
G1 X139.617 Y81.611 E4.835
G1 X139.444 Y81.64 E4.83812
G1 X139.096 Y81.611 E4.84432
G1 X138.923 Y81.64 E4.84744
G1 X138.575 Y81.611 E4.85365
G1 X138.402 Y81.64 E4.85677
G1 X138.054 Y81.611 E4.86297
G1 X137.881 Y81.64 E4.86609
G1 X137.533 Y81.611 E4.8723
G1 X137.36 Y81.64 E4.87542
G1 X137.012 Y81.611 E4.88163
G1 X136.839 Y81.64 E4.88474
G1 X136.491 Y81.611 E4.89095
G1 X136.318 Y81.64 E4.89407
G1 X135.97 Y81.611 E4.90028
G1 X135.799 Y81.64 E4.90336
G1 X135.454 Y81.611 E4.90951
G1 X135.277 Y81.64 E4.9127
G1 X134.927 Y81.611 E4.91895
G1 X134.754 Y81.64 E4.92206
G1 X134.406 Y81.611 E4.92827
G1 X134.233 Y81.64 E4.93139
G1 X133.885 Y81.611 E4.9376
G1 X133.712 Y81.64 E4.94071
G1 X133.364 Y81.611 E4.94692
G1 X133.191 Y81.64 E4.95004
G1 X132.844 Y81.611 E4.95623
G1 X132.672 Y81.64 E4.95933
G1 X132.326 Y81.611 E4.9655
G1 X132.153 Y81.64 E4.96862
G1 X131.805 Y81.611 E4.97483
G1 X131.634 Y81.64 E4.97791
G1 X131.288 Y81.611 E4.98408
G1 X131.114 Y81.64 E4.98722
G1 X130.769 Y81.611 E4.99337
G1 X130.603 Y81.639 E4.99637
G1 X130.218 Y81.605 E5.00324
G1 X130.045 Y81.639 E5.00637
G1 X129.724 Y81.61 E5.0121
G1 X129.551 Y81.64 E5.01522
G1 X129.194 Y81.608 E5.02159
G1 X129.014 Y81.639 E5.02484
G1 X128.672 Y81.61 E5.03094
G1 X128.497 Y81.639 E5.03409
G1 X128.15 Y81.61 E5.04028
G1 X127.977 Y81.639 E5.0434
G1 X127.63 Y81.61 E5.04959
G1 X127.457 Y81.639 E5.05271
G1 X127.111 Y81.61 E5.05888
G1 X126.938 Y81.639 E5.062
G1 X126.591 Y81.61 E5.06819
G1 X126.418 Y81.639 E5.07131
G1 X126.07 Y81.61 E5.07751
G1 X125.897 Y81.639 E5.08063
G1 X125.549 Y81.61 E5.08684
G1 X125.376 Y81.639 E5.08996
G1 X125.028 Y81.61 E5.09617
G1 X124.855 Y81.639 E5.09928
G1 X124.507 Y81.61 E5.10549
G1 X124.336 Y81.639 E5.10857
G1 X123.991 Y81.61 E5.11473
G1 X123.813 Y81.639 E5.11794
G1 X123.462 Y81.612 E5.12419
G1 X123.293 Y81.64 E5.12724
G1 X122.945 Y81.611 E5.13345
G1 X122.771 Y81.64 E5.13658
G1 X122.423 Y81.611 E5.14279
G1 X122.25 Y81.64 E5.14591
G1 X121.902 Y81.611 E5.15211
G1 X121.729 Y81.64 E5.15523
G1 X121.38 Y81.611 E5.16146
G1 X121.208 Y81.64 E5.16456
G1 X121.1 Y81.631 E5.16648
G1 X121.207 Y81.504 E5.16944
G1 X121.207 Y79.52 E5.2047
G1 X121.1 Y79.393 E5.20766
G1 X121.208 Y79.384 E5.20958
G1 X121.38 Y79.413 E5.21268
G1 X121.729 Y79.384 E5.21891
G1 X121.902 Y79.413 E5.22203
G1 X122.25 Y79.384 E5.22823
G1 X122.423 Y79.413 E5.23135
G1 X122.771 Y79.384 E5.23756
G1 X122.944 Y79.413 E5.24068
G1 X123.292 Y79.384 E5.24689
G1 X123.465 Y79.413 E5.25
G1 X123.813 Y79.384 E5.25621
G1 X123.986 Y79.413 E5.25933
G1 X124.334 Y79.384 E5.26554
G1 X124.507 Y79.413 E5.26865
G1 X124.855 Y79.384 E5.27486
G1 X125.028 Y79.413 E5.27798
G1 X125.376 Y79.384 E5.28419
G1 X125.549 Y79.413 E5.28731
G1 X125.898 Y79.384 E5.29353
G1 X126.067 Y79.412 E5.29658
G1 X126.418 Y79.385 E5.30283
G1 X126.596 Y79.414 E5.30604
G1 X126.941 Y79.385 E5.31219
G1 X127.113 Y79.414 E5.31529
G1 X127.46 Y79.385 E5.32148
G1 X127.633 Y79.414 E5.3246
G1 X127.981 Y79.385 E5.33081
G1 X128.154 Y79.414 E5.33393
G1 X128.502 Y79.385 E5.34014
G1 X128.675 Y79.414 E5.34325
G1 X129.022 Y79.385 E5.34944
G1 X129.195 Y79.414 E5.35256
G1 X129.542 Y79.385 E5.35875
G1 X129.715 Y79.414 E5.36187
G1 X130.064 Y79.385 E5.3681
G1 X130.244 Y79.416 E5.37134
G1 X130.591 Y79.384 E5.37754
G1 X130.761 Y79.413 E5.3806
G1 X131.109 Y79.384 E5.38681
G1 X131.282 Y79.413 E5.38993
G1 X131.629 Y79.384 E5.39612
G1 X131.802 Y79.413 E5.39924
G1 X132.149 Y79.384 E5.40543
G1 X132.322 Y79.413 E5.40854
G1 X132.67 Y79.384 E5.41475
G1 X132.844 Y79.413 E5.41789
G1 X133.192 Y79.384 E5.42409
G1 X133.365 Y79.413 E5.42721
G1 X133.714 Y79.384 E5.43344
G1 X133.892 Y79.412 E5.43664
G1 X134.225 Y79.384 E5.44258
G1 X134.39 Y79.412 E5.44556
G1 X134.755 Y79.384 E5.45206
G1 X134.928 Y79.409 E5.45517
G1 X135.273 Y79.385 E5.46132
G1 X135.456 Y79.41 E5.4646
G1 X135.802 Y79.385 E5.47077
G1 X135.984 Y79.411 E5.47404
G1 X136.317 Y79.383 E5.47998
G1 X136.501 Y79.412 E5.48329
